X: 09103
T: S. G. SMITH
C: Bob McQuillen 24 Sept 92
B: Bob's Note Book 9 p.103
R: reel
Z: 2017 John Chambers <jc:trillian.mit.edu>
L: 1/8
M: C
K: G
GA |\
B2GB AGEG | D2GF G2Bd | edeg dBGA | BdBG A2BA |
GABG AGEG | DEGF G2Bd | edeg dBAc | B2G2 G2 :|
|: GA |\
Bdeg b2bg | agbg aged | Bdeg b2ge | degb a2ge |
dega bgeg | ageg d2Bd | gbag edge | dBAB G2 :|
%%begintext align
%% Sarah Gregory Smith is from
%% the Boston area, so I don't see her too often. She's a real good
%% caller, and I was so glad when she asked me to play for her over
%% at Richard Herman's Camp Interlochen a while ago. We had such
%% a pleasant evening - a nice supper and then dancing in the beautiful
%% pavilion after. Thanks a lot, Sarah, to you and Dick.
%%endtext

%%sep 1 1 500

%%sep 1 1 500

